findly-builder/apps/searchassist/src/assets/icons/pagination/right-single.svg

<svg width="16" height="16" viewBox="0 0 16 16" fill="none" xmlns="http://www.w3.org/2000/svg">
<path fill-rule="evenodd" clip-rule="evenodd" d="M10.4996 7.28602C10.6885 7.47542 10.6996 7.77558 10.5329 7.97801L10.4996 8.01476L6.22736 12.4995C6.02668 12.7007 5.7013 12.7007 5.50061 12.4995C5.31173 12.3101 5.30062 12.0099 5.46728 11.8075L5.50061 11.7707L9.40937 7.65039L5.50061 3.53006C5.31173 3.34066 5.30062 3.04051 5.46728 2.83808L5.50061 2.80132C5.68949 2.61192 5.98883 2.60078 6.1907 2.76789L6.22736 2.80132L10.4996 7.28602Z" fill="#202124"/>
</svg>

<svg width="16" height="16" fill="none" xmlns="http://www.w3.org/2000/svg"><path fill-rule="evenodd" clip-rule="evenodd" d="M10.5 7.286c.188.19.2.49.033.692l-.033.037-4.273 4.484a.513.513 0 0 1-.726 0 .516.516 0 0 1-.034-.692l.034-.036 3.908-4.12-3.908-4.12a.516.516 0 0 1-.034-.693l.034-.037c.188-.19.488-.2.69-.033l.036.033L10.5 7.286Z" fill="#202124"/></svg>
